X:7
T:No.89 An Chuilfhionn
C:march
L:1/16
M:6/8
K:G
B2d2||g4g3b a2f2|g2G2 B2d2|g4g3b a2b2|
g3a g2f2|e4e2fg agfe|d3c B2d2 g2d2|
fedc B2G2 A2F2|[1G2B,2G,2B,2 G,4 B2d2:|[2G2B,2G,2B,2 G,4 d3c||
B2A2 G2F2|G2A2 B2c2|d2^c2 d3e f2d2|
g2f2 g2b2 a2b2|g3a g2f2|e4 e2fg agfe|
d3c B2d2 g2d2|fedc B2G2 A2F2|
[1G2B,2G,2B,2 G,4 d3c:|[2G2B,2G,2B,2 G,4 B2d2||
